img/svg/teasier.svg

<svg width="600" height="102" viewBox="0 0 600 102" fill="none" xmlns="http://www.w3.org/2000/svg">
<path d="M31.6303 100.577H46.2172V33.8577H31.6303V100.577ZM0 0.995812V14.5105H77.8475V0.995812H0Z" fill="white"/>
<path d="M97.0994 86.9205V100.577H168.498V86.9205H97.0994ZM162.817 44.1004H97.0994V57.3305H162.817V44.1004ZM167.577 0.995812H97.0994V14.5105H167.577V0.995812Z" fill="white"/>
<path d="M235.784 0.995812H221.505L182.965 100.577H199.087L228.721 21.3389L258.356 100.577H274.478L235.784 0.995812Z" fill="white"/>
<path d="M330.789 43.2469C313.592 38.6946 306.069 35.2803 306.069 27.7406C306.069 20.7699 312.21 13.6569 327.872 13.6569C342.459 13.6569 348.601 19.9163 351.365 26.7448L365.337 22.3347C360.27 9.95816 347.526 0 327.411 0C305.147 0 291.021 11.0962 290.407 27.1715C289.793 44.5272 303.919 50.6444 325.569 56.3347C343.841 61.1715 353.361 64.5858 353.361 73.5481C353.361 82.6527 343.227 88.2008 330.329 88.2008C315.128 88.2008 305.147 81.0879 301.462 73.9749L287.49 79.3808C293.324 91.6151 308.525 102 330.789 102C355.51 102 368.869 88.6276 368.869 73.1213C368.869 55.0544 352.593 48.9372 330.789 43.2469Z" fill="white"/>
<path d="M389.669 0.995812V100.577H404.256V0.995812H389.669Z" fill="white"/>
<path d="M428.763 86.9205V100.577H500.162V86.9205H428.763ZM494.481 44.1004H428.763V57.3305H494.481V44.1004ZM499.241 0.995812H428.763V14.5105H499.241V0.995812Z" fill="white"/>
<path d="M583.264 100.577H600L576.815 62.4519C589.559 57.4728 596.929 46.2343 596.929 33.1464C596.929 15.364 583.571 0.995812 561.767 0.995812H521.538V14.5105H561.767C574.665 14.5105 581.882 23.3305 581.882 33.1464C581.882 42.8201 574.665 51.6402 561.767 51.6402H521.538V100.577H536.279V65.1548H561.614L583.264 100.577Z" fill="white"/>
</svg>

<svg width="600" height="102" viewBox="0 0 600 102" fill="none" xmlns="http://www.w3.org/2000/svg"><path d="M31.63 100.577h14.587v-66.72H31.63v66.72zM0 .996V14.51h77.847V.997H0zM97.1 86.92v13.657h71.398V86.921H97.099zm65.717-42.82H97.099v13.23h65.718V44.1zm4.76-43.104H97.099V14.51h70.478V.997zm68.207 0h-14.279l-38.54 99.581h16.122l29.634-79.238 29.635 79.238h16.122L235.784.996zm95.005 42.251c-17.197-4.552-24.72-7.967-24.72-15.506 0-6.971 6.141-14.084 21.803-14.084 14.587 0 20.729 6.26 23.493 13.088l13.972-4.41C360.27 9.958 347.526 0 327.411 0c-22.264 0-36.39 11.096-37.004 27.172-.614 17.355 13.512 23.472 35.162 29.163 18.272 4.837 27.792 8.25 27.792 17.213 0 9.105-10.134 14.653-23.032 14.653-15.201 0-25.182-7.113-28.867-14.226L287.49 79.38c5.834 12.235 21.035 22.62 43.299 22.62 24.721 0 38.08-13.372 38.08-28.879 0-18.067-16.276-24.184-38.08-29.874zM389.669.996v99.581h14.587V.996h-14.587zm39.094 85.924v13.657h71.399V86.921h-71.399zm65.718-42.82h-65.718v13.23h65.718V44.1zm4.76-43.104h-70.478V14.51h70.478V.997zm84.023 99.581H600l-23.185-38.125c12.744-4.98 20.114-16.218 20.114-29.306 0-17.782-13.358-32.15-35.162-32.15h-40.229V14.51h40.229c12.898 0 20.115 8.82 20.115 18.636 0 9.674-7.217 18.494-20.115 18.494h-40.229v48.937h14.741V65.155h25.335l21.65 35.422z" fill="#fff"/></svg>
